!!!COM: Palestrina, Giovanni Perluigi da
!!!OPR: Missa Sacerdotes Domini
!!!OMD: Credo
!!!OTL: First Section
**kern	**kern	**kern	**kern	**kern	**kern
*Ibass	*Ibarit	*Itenor	*Itenor	*Icalto	*Icant
!Bassus	!Baritone	!Tenor 2	!Tenor 1	!Altus	!Cantus
*clefF4	*clefF4	*clefGv2	*clefGv2	*clefG2	*clefG2
*k[]	*k[]	*k[]	*k[]	*k[]	*k[]
*G:mix	*G:mix	*G:mix	*G:mix	*G:mix	*G:mix
*M4/2	*M4/2	*M4/2	*M4/2	*M4/2	*M4/2
=1	=1	=1	=1	=1	=1
0r	0r	0r	0r	0r	1.dd
.	.	.	.	.	2dd
=2	=2	=2	=2	=2	=2
0r	0r	0r	0r	1.a	2cc
.	.	.	.	.	2a
.	.	.	.	.	1cc
.	.	.	.	2a	.
=3	=3	=3	=3	=3	=3
0r	0r	0r	0r	2g	0b
.	.	.	.	2e	.
.	.	.	.	1g	.
=4	=4	=4	=4	=4	=4
1.d	0r	0r	0r	0f	2a
.	.	.	.	.	2a
.	.	.	.	.	4a
.	.	.	.	.	4g
2d	.	.	.	.	4a
.	.	.	.	.	4b
=5	=5	=5	=5	=5	=5
2c	0r	0r	0r	2e	4cc
.	.	.	.	.	4b
2A	.	.	.	2a	4cc
.	.	.	.	.	4dd
1c	.	.	.	2a	2ee
.	.	.	.	2g	[2ee
=6	=6	=6	=6	=6	=6
1B	0r	0r	0r	4g	4ee]
.	.	.	.	4f	4dd
.	.	.	.	4e	1dd
.	.	.	.	4d	.
1A	.	.	.	1e	.
.	.	.	.	.	2cc#
=7	=7	=7	=7	=7	=7
0D	1d	0r	0r	2f	2dd
.	.	.	.	2a	2ff
.	2d	.	.	1a	2ff
.	2d	.	.	.	2ff
=8	=8	=8	=8	=8	=8
1A	2c	1r	0r	2a	2ee
.	2A	.	.	2.cc	2cc
2A	1c	1e	.	.	2.ee
.	.	.	.	4b	.
2A	.	.	.	2a	.
.	.	.	.	.	4ff
=9	=9	=9	=9	=9	=9
2G	0B	2e	0r	1b	2gg
2E	.	2e	.	.	4g
.	.	.	.	.	4a
1G	.	2d	.	1g	4b
.	.	.	.	.	4cc
.	.	2B	.	.	[2dd
=10	=10	=10	=10	=10	=10
2.D	1A	1d	1f	0a	4dd]
.	.	.	.	.	4ee
.	.	.	.	.	2.ff
4E	.	.	.	.	.
2.F	1r	[1c	2f	.	.
.	.	.	.	.	4ee
.	.	.	2f	.	[2cc
4G	.	.	.	.	.
=11	=11	=11	=11	=11	=11
1A	0r	1c]	2e	1a	4cc]
.	.	.	.	.	4dd
.	.	.	2c	.	1ee
2.E	.	1B	1e	1g	.
.	.	.	.	.	4dd
4F	.	.	.	.	4cc
=12	=12	=12	=12	=12	=12
2G	0r	0r	0d	2g	2b
2F#	.	.	.	2a	2a
1G	.	.	.	2g	4b
.	.	.	.	.	2cc
.	.	.	.	2d	.
.	.	.	.	.	4b
=13	=13	=13	=13	=13	=13
1C	2.c	0r	1c	2.e	1cc
.	4c	.	.	4e	.
1r	2c	.	1r	2e	1g
.	2B	.	.	2d	.
=14	=14	=14	=14	=14	=14
0r	2c	1r	0r	2e	2.a
.	1d	.	.	1f	.
.	.	.	.	.	4a
.	.	2.d	.	.	2a
.	2B	.	.	2d	2g#
.	.	4d	.	.	.
=15	=15	=15	=15	=15	=15
2r	1A	2d	0r	2.e	1a
2A	.	2c	.	.	.
.	.	.	.	4f#	.
2G	1r	2d	.	1g	2b
[2C	.	[2e	.	.	2cc
=16	=16	=16	=16	=16	=16
2C]	0r	2e]	2.e	2r	0g
2C	.	2c	.	2.G	.
.	.	.	4e	.	.
2.G	.	1B	2e	.	.
.	.	.	.	4A	.
.	.	.	2d	2B	.
4F	.	.	.	.	.
=17	=17	=17	=17	=17	=17
2E	0r	0r	2e	2c	1r
1D	.	.	1f	2.d	.
.	.	.	.	.	[1a
.	.	.	.	4e	.
2D	.	.	2d	4f	.
.	.	.	.	4d	.
=18	=18	=18	=18	=18	=18
2.A	1r	0r	1c	2e	1a]
.	.	.	.	2e	.
4G	.	.	.	.	.
4F	1d	.	1r	2f	1a
4E	.	.	.	.	.
2D	.	.	.	[2f	.
=19	=19	=19	=19	=19	=19
1A	2d	0r	0r	2f]	1a
.	2c	.	.	2e	.
1r	2d	.	.	2f	2b
.	[2e	.	.	2g	[2cc
=20	=20	=20	=20	=20	=20
0r	2e]	1e	0r	1c	4cc]
.	.	.	.	.	4b
.	2c	.	.	.	1a
.	1B	2e	.	2r	.
.	.	2d	.	[2d	2g#
=21	=21	=21	=21	=21	=21
1A	0r	2e	1r	2d]	1a
.	.	1f	.	2c	.
1B-	.	.	1f	2.d	2.f
.	.	2d	.	.	.
.	.	.	.	4e	4g
=22	=22	=22	=22	=22	=22
1A	0r	1c	2f	4f	4a
.	.	.	.	4g	4b
.	.	.	2e	1a	2cc
2D	.	1r	2f	.	2a
[2G	.	.	[2g	[2d	[2b
=23	=23	=23	=23	=23	=23
2G]	0r	0r	2g]	2d]	2b]
2C	.	.	2e	1g	2cc
1D	.	.	1d	.	2a
.	.	.	.	2f#	2a
=24	=24	=24	=24	=24	=24
2r	2r	0r	0r	1g	2b
1C	1c	.	.	.	1ee
.	.	.	.	2r	.
2C	2c	.	.	[2g	2ee
=25	=25	=25	=25	=25	=25
2C	2c	1r	0r	2g]	2ee
2C	2c	.	.	2g	2ee
2.G	2.B	2r	.	2g	2.dd
.	.	[2d	.	2g	.
4G	4B	.	.	.	4dd
=26	=26	=26	=26	=26	=26
1D	1A	2d]	0r	2.f#	1dd
.	.	2d	.	.	.
.	.	.	.	4f#	.
1G	1B	2d	.	2.g	1dd
.	.	2d	.	.	.
.	.	.	.	4f	.
=27	=27	=27	=27	=27	=27
1C	2G	2.c	2r	1e	1ee
.	2.A	.	1e	.	.
.	.	4c	.	.	.
1E	.	1B	.	1r	1ee
.	4G#	.	.	.	.
.	2G#	.	2e	.	.
=28	=28	=28	=28	=28	=28
2AA	1A	1c	2e	1r	1ee
2A	.	.	2e	.	.
2F	1r	2A	2.d	2r	1r
2G	.	[2B	.	2g	.
.	.	.	4d	.	.
=29	=29	=29	=29	=29	=29
1A	1r	4B]	1c	2e	0r
.	.	4A	.	.	.
.	.	2A	.	2f#	.
2G	2r	1B	1d	1g	.
[2G	2d	.	.	.	.
=30	=30	=30	=30	=30	=30
2G]	2d	0r	2B	1g	2r
2E	2e	.	2.c	.	2cc
2D	1f	.	.	2a	2dd
.	.	.	4B	.	.
2D	.	.	2B	2d	2dd
=31	=31	=31	=31	=31	=31
1C	1e	2r	1c	2g	1.ee
.	.	2e	.	2g	.
1r	2c	2e	1r	1a	.
.	2d	2f	.	.	2dd
=32	=32	=32	=32	=32	=32
0r	2e	1g	1r	2r	2b
.	2e	.	.	2g	2cc
.	1d	1f	2r	2.a	2.dd
.	.	.	2f	.	.
.	.	.	.	4g	4ee
=33	=33	=33	=33	=33	=33
0r	0r	2d	2f	4a	2ff
.	.	.	.	4b	.
.	.	2e	2g	1cc	1ee
.	.	2f	1a	.	.
.	.	2f	.	4b	2dd
.	.	.	.	4a	.
=34	=34	=34	=34	=34	=34
2r	0r	1e	1g	2b	2.ee
1c	.	.	.	4cc	.
.	.	.	.	4b	4dd
.	.	1r	2e	4a	2cc
.	.	.	.	4g	.
2d	.	.	2f	[2f	2b
=35	=35	=35	=35	=35	=35
2c	0r	0r	2g	2f]	1cc
2c	.	.	2g	2e	.
[1F	.	.	1f	2f	2r
.	.	.	.	[2f	[2a
=36	=36	=36	=36	=36	=36
1F]	2r	0r	0r	2f]	2a]
.	1c	.	.	2f	2a
1r	.	.	.	2.e	[1g
.	2c	.	.	.	.
.	.	.	.	8d	.
.	.	.	.	8c	.
=37	=37	=37	=37	=37	=37
0r	2B	1r	0r	2d	2g]
.	2c	.	.	2e	2a
.	2.d	2r	.	2.f	4b
.	.	.	.	.	4a
.	.	[2d	.	.	[2a
.	4c	.	.	4e	.
=38	=38	=38	=38	=38	=38
1r	1B	2d]	0r	4d	2a]
.	.	.	.	4c	.
.	.	2d	.	4d	2g#
.	.	.	.	4e	.
1F	1A	2c	.	1f	2.a
.	.	2d	.	.	.
.	.	.	.	.	4b
=39	=39	=39	=39	=39	=39
2C	0r	2.e	2r	0g	4cc
.	.	.	.	.	4dd
2.C	.	.	1e	.	4ee
.	.	4d	.	.	4ff
.	.	1c	.	.	1gg
4D	.	.	.	.	.
4E	.	.	2e	.	.
4F	.	.	.	.	.
=40	=40	=40	=40	=40	=40
2G	0r	1B	2d	1g	2r
2G	.	.	2e	.	2g
1F	.	1r	2.f	1c	2a
.	.	.	.	.	[2cc
.	.	.	4e	.	.
=41	=41	=41	=41	=41	=41
1G	2r	0r	1d	2.g	2cc]
.	2G	.	.	.	2b
.	.	.	.	4g	.
1r	2A	.	1c	1e	2a
.	[2c	.	.	.	2g
=42	=42	=42	=42	=42	=42
0r	2c]	1r	0r	2r	4a
.	.	.	.	.	4g
.	2B	.	.	2g	1g
.	1A	2r	.	2a	.
.	.	2A	.	2cc	2f#
=43	=43	=43	=43	=43	=43
0r	1G	2B	0r	2b	4g
.	.	.	.	.	4f
.	.	1d	.	2b	4d
.	.	.	.	.	4e
.	1F	.	.	2a	2.f
.	.	2c	.	2a	.
.	.	.	.	.	4e
=44	=44	=44	=44	=44	=44
2r	1G	1B	2r	1g	1d
2G	.	.	2B	.	.
2A	1r	1A	2c	1r	2r
[2c	.	.	[2e	.	2e
=45	=45	=45	=45	=45	=45
2c]	0r	1G	2e]	1r	2g
2B	.	.	2d	.	2g
1A	.	1A	1c	2r	4f
.	.	.	.	.	4e
.	.	.	.	2e	[2a
=46	=46	=46	=46	=46	=46
2E	0r	0r	1B	2e	4a]
.	.	.	.	.	4g
2G	.	.	.	2d	1g
1D	.	.	1A	2.d	.
.	.	.	.	.	2f#
.	.	.	.	4d	.
=47	=47	=47	=47	=47	=47
1G	2r	0r	1B	1d	2g
.	2B	.	.	.	2dd
2G	2B	.	1r	1g	2dd
2G	2B	.	.	.	2dd
=48	=48	=48	=48	=48	=48
0C	0c	1r	0r	1.g	0ee
.	.	2r	.	.	.
.	.	2c	.	2g	.
=49	=49	=49	=49	=49	=49
2.F	2A	2c	0r	1a	1cc
.	2A	2c	.	.	.
4E	.	.	.	.	.
1D	2A	[1d	.	1f#	2r
.	2A	.	.	.	2a
=50	=50	=50	=50	=50	=50
1G	1.B	1d]	2r	2r	4g
.	.	.	.	.	4a
.	.	.	2d	2g	4b
.	.	.	.	.	4cc
2G	.	2B	2d	2g	2dd
2G	2G	2B	2d	2g	2g
=51	=51	=51	=51	=51	=51
2.E	1G	2B	0e	1.g	2.gg
.	.	2B	.	.	.
4E	.	.	.	.	4gg
1C	1r	[1c	.	.	2ee
.	.	.	.	2g	2cc
=52	=52	=52	=52	=52	=52
1F	0r	2c]	2c	1a	2cc
.	.	2A	2c	.	2cc
2F	.	1A	2c	2r	[1ff
2F	.	.	2c	2a	.
=53	=53	=53	=53	=53	=53
1.D	0r	0r	1.d	2a	2ff]
.	.	.	.	2a	2dd
.	.	.	.	2f	[1dd
2G	.	.	2B	2g	.
=54	=54	=54	=54	=54	=54
1G	1r	0r	1B	1g	1dd]
[1C	[1c	.	1r	2r	[1ee
.	.	.	.	[2g	.
=55	=55	=55	=55	=55	=55
2C]	2c]	0r	0r	2g]	2ee]
2G	2B	.	.	2g	2dd
1C	1c	.	.	1g	1ee
=56	=56	=56	=56	=56	=56
1G	2B	1.d	0r	1g	4dd
.	.	.	.	.	4cc
.	2B	.	.	.	4b
.	.	.	.	.	4a
1r	2B	.	.	2r	2g
.	2A	2c	.	2e	2a
=57	=57	=57	=57	=57	=57
1r	1B	1d	1r	2d	2a
.	.	.	.	2d	2g#
2r	1A	2c	[1e	2e	1a
2A	.	2c	.	2c	.
=58	=58	=58	=58	=58	=58
2E	0r	2c	2e]	2r	1g
2G	.	2B	2d	2g	.
4C	.	1c	1e	[1g	2r
4D	.	.	.	.	.
4E	.	.	.	.	2g
4F	.	.	.	.	.
=59	=59	=59	=59	=59	=59
4G	0r	1B	2d	2g]	2.b
4F	.	.	.	.	.
4G	.	.	2d	2g	.
4A	.	.	.	.	4cc
2B	.	1r	2d	1g	2dd
[2c	.	.	2c	.	2ee
=60	=60	=60	=60	=60	=60
2c]	1r	0r	1d	1G	1dd
2B	.	.	.	.	.
2.c	2r	.	1c	[1g	2ee
.	[2c	.	.	.	[2ee
8B	.	.	.	.	.
8A	.	.	.	.	.
=61	=61	=61	=61	=61	=61
1G	2c]	0r	0r	2g]	2ee]
.	2B	.	.	2g	2dd
1r	2c	.	.	2g	2ee
.	2A	.	.	[2a	2cc
=62	=62	=62	=62	=62	=62
0r	1B	2r	0r	2a]	2.dd
.	.	1d	.	2g#	.
.	.	.	.	.	4ee
.	1A	.	.	2a	2ff
.	.	2c#	.	2a	2ee
=63	=63	=63	=63	=63	=63
2r	0r	2d	1r	2a	2ff
2G	.	2B	.	2b	2dd
1C	.	1c	2r	2g	2ee
.	.	.	[2e	[2g	2ee
=64	=64	=64	=64	=64	=64
2.G	0r	1B	2e]	4g]	1.gg
.	.	.	.	4a	.
.	.	.	2d	2b	.
4F	.	.	.	.	.
2E	.	1r	2e	2b	.
2A	.	.	2c	[2cc	2ff
=65	=65	=65	=65	=65	=65
1G	0r	0r	1d	4cc]	1gg
.	.	.	.	8b	.
.	.	.	.	8a	.
.	.	.	.	2b	.
2C	.	.	1c	2cc	2ee
2c	.	.	.	[2g	2ee
=66	=66	=66	=66	=66	=66
2B	0r	0r	0r	2g]	2dd
2.c	.	.	.	2g	2.ee
.	.	.	.	2.e	.
4B	.	.	.	.	4dd
2A	.	.	.	.	2cc
.	.	.	.	4f#	.
=67	=67	=67	=67	=67	=67
2G	0r	0r	0r	2g	2b
2F	.	.	.	1a	2a
1E	.	.	.	.	1b
.	.	.	.	2g#	.
=68	=68	=68	=68	=68	=68
1F	2r	0r	0r	2a	2r
.	2c	.	.	2f	2a
2F	2c	.	.	2f	2a
2F	2c	.	.	2f	2a
=69	=69	=69	=69	=69	=69
1C	1e	1r	0r	1g	1cc
[1G	2.d	2r	.	[1g	2.b
.	.	2d	.	.	.
.	4c	.	.	.	4cc
=70	=70	=70	=70	=70	=70
2G]	2B	2d	0r	2g]	1dd
2G	2B	2d	.	2g	.
1F	1A	1f	.	1a	2r
.	.	.	.	.	2cc
=71	=71	=71	=71	=71	=71
1C	0r	2.e	2r	1g	2cc
.	.	.	2e	.	2cc
.	.	4d	.	.	.
2C	.	2c	2e	2g	1ee
2C	.	2c	2e	2c	.
=72	=72	=72	=72	=72	=72
1G	0r	1B	1g	1d	2dd
.	.	.	.	.	1dd
2D	.	1r	2.f	2a	.
2F	.	.	.	2a	[2cc
.	.	.	4e	.	.
=73	=73	=73	=73	=73	=73
1G	1r	0r	2d	1g	2cc]
.	.	.	2d	.	2b
2C	1e	.	1c	2g	2cc
2C	.	.	.	2cc	[2gg
=74	=74	=74	=74	=74	=74
1D	1d	0r	0r	2b	2gg]
.	.	.	.	1a	2ff
1E	2c	.	.	.	2.ee
.	2B	.	.	2g#	.
.	.	.	.	.	4dd
=75	=75	=75	=75	=75	=75
1F	1A	1f	0r	1a	4cc
.	.	.	.	.	4b
.	.	.	.	.	2.cc
1C	1G	1e	.	2cc	.
.	.	.	.	.	4b
.	.	.	.	2c	4g
.	.	.	.	.	4a
=76	=76	=76	=76	=76	=76
2G	0r	2d	1r	2B	2b
2C	.	2c	.	2e	2cc
1G	.	1B	1g	[1d	[1dd
=77	=77	=77	=77	=77	=77
1D	0r	1A	1f	1d]	1dd]
2E	.	1r	2e	[1g	2cc
2G	.	.	2d	.	2b
=78	=78	=78	=78	=78	=78
1C	0r	0r	1c	1g]	1ee
1G	.	.	1B	1g	1dd
=79	=79	=79	=79	=79	=79
1r	1r	0r	0r	1r	1r
1G	1B	.	.	1d	1g
=80	=80	=80	=80	=80	=80
1F	1c	0r	0r	1f	1.a
1D	1d	.	.	1f	.
.	.	.	.	.	2b
=81	=81	=81	=81	=81	=81
1C	1e	1c	0r	1g	2cc
.	.	.	.	.	2ee
1G	1B	1d	.	1g	1dd
=82	=82	=82	=82	=82	=82
1C	1c	1e	1r	2g	1cc
.	.	.	.	2cc	.
1D	1r	1f	1d	[1a	2r
.	.	.	.	.	2ff
=83	=83	=83	=83	=83	=83
1A	0r	1c	1e	2a]	2ee
.	.	.	.	2a	2ee
2D	.	1d	1f	1a	1dd
2D	.	.	.	.	.
=84	=84	=84	=84	=84	=84
0G	1r	0r	1g	1d	1b
.	2r	.	1d	[1g	2b
.	2G	.	.	.	2b
=85	=85	=85	=85	=85	=85
2.E	2G	0r	1e	1g]	2b
.	1c	.	.	.	1ee
4F	.	.	.	.	.
1G	.	.	1r	2r	.
.	2B	.	.	2g	2dd
=86	=86	=86	=86	=86	=86
0r	1.c	2r	0r	2g	4ee
.	.	.	.	.	4dd
.	.	2A	.	1e	4cc
.	.	.	.	.	4b
.	.	2A	.	.	2a
.	2B	[2d	.	2d	2g#
=87	=87	=87	=87	=87	=87
1r	1A	2d]	1r	2e	1a
.	.	2c	.	2e	.
[1G	1r	[1d	2r	1g	[1b
.	.	.	2B	.	.
=88	=88	=88	=88	=88	=88
2G]	0r	2d]	2B	2r	2b]
2C	.	2c	1e	1g	2cc
2E	.	1B	.	.	1g
2G	.	.	2d	2b	.
=89	=89	=89	=89	=89	=89
2C	0r	0r	1.e	2cc	2g
2C	.	.	.	2g	1cc
1G	.	.	.	2.g	.
.	.	.	2d	.	2b
.	.	.	.	4g	.
=90	=90	=90	=90	=90	=90
2r	1A	0r	1c	2e	2cc
2F	.	.	.	2c	2a
4D	1d	.	1r	1f	[1a
4E	.	.	.	.	.
4F	.	.	.	.	.
4G	.	.	.	.	.
=91	=91	=91	=91	=91	=91
1A	1c	1r	0r	1e	1a]
1G	1d	1B	.	[1g	1b
=92	=92	=92	=92	=92	=92
1C	1c	1e	0r	2g]	2cc
.	.	.	.	2g	4g
.	.	.	.	.	4a
1G	1B	1d	.	1g	4b
.	.	.	.	.	4cc
.	.	.	.	.	[2dd
=93	=93	=93	=93	=93	=93
1C	0r	1e	1c	2r	4dd]
.	.	.	.	.	4cc
.	.	.	.	2g	1cc
1r	.	1d	1f	2a	.
.	.	.	.	2f	2b
=94	=94	=94	=94	=94	=94
1C	2r	1c	1e	4g	1cc
.	.	.	.	4f	.
.	2G	.	.	4e	.
.	.	.	.	4d	.
2F	2A	1r	1f	4c	2r
.	.	.	.	4A	.
2D	2A	.	.	[2a	2dd
=95	=95	=95	=95	=95	=95
2A	2.c	1r	1e	2a]	2ee
2A	.	.	.	2a	2ee
.	4B	.	.	.	.
1D	1A	2r	[1d	2a	4ff
.	.	.	.	.	4ee
.	.	2A	.	2f	4dd
.	.	.	.	.	4cc
=96	=96	=96	=96	=96	=96
2r	1G	2B	0d]	1g	1b
2G	.	2B	.	.	.
2D	2F#	2.d	.	2a	1a
2F#	2A	.	.	[2a	.
.	.	4c	.	.	.
=97	=97	=97	=97	=97	=97
1G	2B	1B	[0d	2a]	0dd
.	2.d	.	.	1g	.
1D	.	1A	.	.	.
.	4c	.	.	.	.
.	2A	.	.	2f#	.
=98	=98	=98	=98	=98	=98
0G	0B	0G	0d]	0g	0b
*-	*-	*-	*-	*-	*-
!!!CDT: 1525/^1526/-1594/2/2
!!!OCY: Italia
!!!AGN: Mass (Canonic)
!!!AST: renaissance, vocal
!!!ASW: Motet (unidentified)
!!!PWK: Masses, Book 8
!!!RNB: Cadence finals: C
!!!YOR: Le Opere Complete, v. 24, p. 157
!!!YOO: Rome, Italy: Fratelli Scalera
!!!END: 1992//
!!!EED: John Miller
!!!YEC: Copyright 2000, John Miller
!!!YEN: United States of America
!!!YEM: Rights to all derivative electronic formats reserved.
!!!YEM: Refer to licensing agreement for further details.
!!!YEM: This file must be accompanied by the licensing agreement.
!!!YEM: A copy of the licensing agreement may be found at http://www.music-cog.ohio-state.edu/HumdrumDatabases/Palestrina/license.txt
!!!EMD: converted to Humdrum by Bret Aarden
